Newaita-dark/apps/48/trello.svg

<svg height="48pt" viewBox="0 0 48 48" width="48pt" xmlns="http://www.w3.org/2000/svg" xmlns:xlink="http://www.w3.org/1999/xlink"><linearGradient id="a" gradientUnits="userSpaceOnUse" x1="23.81478" x2="23.81478" y1="42.0509045" y2="44.03547050005"><stop offset="0" stop-opacity=".27451"/><stop offset="1" stop-opacity="0"/></linearGradient><linearGradient id="b"><stop offset="0" stop-opacity=".313726"/><stop offset=".222222" stop-opacity=".27451"/><stop offset="1" stop-opacity="0"/></linearGradient><radialGradient id="c" cx="450.908936" cy="189.579361" gradientTransform="matrix(.00000026 -.117199 -.210958 -.00000015 79.684395 95.392999)" gradientUnits="userSpaceOnUse" r="21.166656" xlink:href="#b"/><radialGradient id="d" cx="450.908936" cy="189.579361" gradientTransform="matrix(-.00000026 .117199 .210958 .00000015 -31.80678 -11.291218)" gradientUnits="userSpaceOnUse" r="21.166656" xlink:href="#b"/><radialGradient id="e" cx="450.908936" cy="189.579361" gradientTransform="matrix(-.00000026 -.117199 .210958 -.00000015 -31.80678 95.392999)" gradientUnits="userSpaceOnUse" r="21.166656" xlink:href="#b"/><radialGradient id="f" cx="450.908936" cy="189.579361" gradientTransform="matrix(.00000026 .117199 -.210958 .00000015 79.684393 -11.291219)" gradientUnits="userSpaceOnUse" r="21.166656" xlink:href="#b"/><linearGradient id="g" gradientUnits="userSpaceOnUse" x1="23.814786" x2="23.814786" y1="4.3441560001" y2="42.0508995"><stop offset="0" stop-color="#64b5f6"/><stop offset="1" stop-color="#42a5f5"/></linearGradient><linearGradient id="h"><stop offset="0" stop-color="#e0e0e0"/><stop offset="1" stop-color="#eee"/></linearGradient><linearGradient id="i" gradientUnits="userSpaceOnUse" x1="32.74533075" x2="32.74533075" xlink:href="#h" y1="21.21296375" y2="9.30557075"/><linearGradient id="j" gradientUnits="userSpaceOnUse" x1="14.88424125" x2="14.88424125" xlink:href="#h" y1="37.08948724995" y2="9.30557075"/><path d="m7.691406 42.050781h32.496094v1.984375h-32.496094zm0 0" fill="url(#a)"/><path d="m40.1875 42.050781h3.96875v-1.984375h-3.96875zm0 0" fill="url(#c)"/><path d="m7.691406 42.050781h-3.96875v1.984375h3.96875zm0 0" fill="url(#d)"/><path d="m7.691406 42.050781h-3.96875v-1.984375h3.96875zm0 0" fill="url(#e)"/><path d="m40.1875 42.050781h3.96875v1.984375h-3.96875zm0 0" fill="url(#f)"/><path d="m5.457031 4.34375h36.714844c.820313 0 1.488281.667969 1.488281 1.488281v34.730469c0 .820312-.667968 1.488281-1.488281 1.488281h-36.714844c-.820312 0-1.488281-.667969-1.488281-1.488281v-34.730469c0-.820312.667969-1.488281 1.488281-1.488281zm0 0" fill="url(#g)"/><path d="m5.457031 4.34375c-.824219 0-1.488281.664062-1.488281 1.488281v.558594c0-.824219.664062-1.488281 1.488281-1.488281h36.714844c.824219 0 1.488281.664062 1.488281 1.488281v-.558594c0-.824219-.664062-1.488281-1.488281-1.488281zm0 0" fill="#fff" fill-opacity=".392157"/><path d="m5.457031 41.988281c-.824219 0-1.488281-.664062-1.488281-1.488281v-.558594c0 .824219.664062 1.488282 1.488281 1.488282h36.714844c.824219 0 1.488281-.664063 1.488281-1.488282v.558594c0 .824219-.664062 1.488281-1.488281 1.488281zm0 0" fill-opacity=".235294"/><path d="m5.457031 4.203125c-.898437 0-1.628906.730469-1.628906 1.628906v34.730469c0 .898438.730469 1.628906 1.628906 1.628906h36.714844c.898437 0 1.628906-.730468 1.628906-1.628906v-34.730469c0-.898437-.730469-1.628906-1.628906-1.628906zm0 .28125h36.714844c.75 0 1.347656.597656 1.347656 1.347656v34.730469c0 .75-.597656 1.347656-1.347656 1.347656h-36.714844c-.75 0-1.347656-.597656-1.347656-1.347656v-34.730469c0-.75.597656-1.347656 1.347656-1.347656zm0 0" fill="#212121"/><path d="m28.777344 9.304688h7.9375c1.09375 0 1.984375.890624 1.984375 1.984374v7.9375c0 1.097657-.890625 1.988282-1.984375 1.988282h-7.9375c-1.097656 0-1.984375-.890625-1.984375-1.988282v-7.9375c0-1.09375.886719-1.984374 1.984375-1.984374zm0 0" fill="url(#i)"/><path d="m10.914062 9.304688h7.9375c1.097657 0 1.988282.890624 1.988282 1.984374v23.816407c0 1.09375-.890625 1.984375-1.988282 1.984375h-7.9375c-1.09375 0-1.984374-.890625-1.984374-1.984375v-23.816407c0-1.09375.890624-1.984374 1.984374-1.984374zm0 0" fill="url(#j)"/><path d="m28.777344 9.304688c-1.101563 0-1.984375.886718-1.984375 1.984374v.746094c0-1.101562.882812-1.984375 1.984375-1.984375h7.9375c1.097656 0 1.984375.882813 1.984375 1.984375v-.746094c0-1.097656-.886719-1.984374-1.984375-1.984374zm0 0" fill="#fff" fill-opacity=".784314"/><path d="m10.914062 9.304688c-1.097656 0-1.984374.886718-1.984374 1.984374v.746094c0-1.101562.886718-1.984375 1.984374-1.984375h7.9375c1.101563 0 1.988282.882813 1.988282 1.984375v-.746094c0-1.097656-.886719-1.984374-1.988282-1.984374zm0 0" fill="#fff" fill-opacity=".784314"/><path d="m28.777344 21.957031c-1.101563 0-1.984375-.886719-1.984375-1.984375v-.746094c0 1.101563.882812 1.988282 1.984375 1.988282h7.9375c1.097656 0 1.984375-.886719 1.984375-1.988282v.746094c0 1.097656-.886719 1.984375-1.984375 1.984375zm0 0" fill-opacity=".235294"/><path d="m10.914062 37.832031c-1.097656 0-1.984374-.882812-1.984374-1.984375v-.742187c0 1.097656.886718 1.984375 1.984374 1.984375h7.9375c1.101563 0 1.988282-.886719 1.988282-1.984375v.742187c0 1.101563-.886719 1.984375-1.988282 1.984375zm0 0" fill-opacity=".235294"/><g fill="none" stroke="#424242" stroke-linecap="round" stroke-linejoin="round" stroke-width="3" transform="matrix(.093759 0 0 .093759 0 20.158175)"><path d="m306.929023-115.759477h84.658582c11.665553 0 21.164646 9.499093 21.164646 21.164646v84.658582c0 11.707215-9.499093 21.206308-21.164646 21.206308h-84.658582c-11.707215 0-21.164645-9.499093-21.164645-21.206308v-84.658582c0-11.665553 9.45743-21.164646 21.164645-21.164646zm0 0"/><path d="m116.40555-115.759477h84.658583c11.707215 0 21.206308 9.499093 21.206308 21.164646v254.017409c0 11.665552-9.499093 21.164645-21.206308 21.164645h-84.658583c-11.665552 0-21.164645-9.499093-21.164645-21.164645v-254.017409c0-11.665553 9.499093-21.164646 21.164645-21.164646zm0 0"/></g></svg>

<?xml version="1.0" encoding="UTF-8"?>
<svg xmlns="http://www.w3.org/2000/svg" xmlns:xlink="http://www.w3.org/1999/xlink" width="48pt" height="48pt" viewBox="0 0 48 48" version="1.1">
<defs>
<linearGradient id="linear0" gradientUnits="userSpaceOnUse" x1="254" y1="233.5" x2="254" y2="254.666672" gradientTransform="matrix(0.093759,0,0,0.093759,-0.00000572259,20.158178)">
<stop offset="0" style="stop-color:rgb(0%,0%,0%);stop-opacity:0.27451;"/>
<stop offset="1" style="stop-color:rgb(0%,0%,0%);stop-opacity:0;"/>
</linearGradient>
<radialGradient id="radial0" gradientUnits="userSpaceOnUse" cx="450.908936" cy="189.579361" fx="450.908936" fy="189.579361" r="21.166656" gradientTransform="matrix(0.000000261256,-0.117199,-0.210958,-0.000000152308,79.684395,95.392999)">
<stop offset="0" style="stop-color:rgb(0%,0%,0%);stop-opacity:0.313726;"/>
<stop offset="0.222222" style="stop-color:rgb(0%,0%,0%);stop-opacity:0.27451;"/>
<stop offset="1" style="stop-color:rgb(0%,0%,0%);stop-opacity:0;"/>
</radialGradient>
<radialGradient id="radial1" gradientUnits="userSpaceOnUse" cx="450.908936" cy="189.579361" fx="450.908936" fy="189.579361" r="21.166656" gradientTransform="matrix(-0.000000261256,0.117199,0.210958,0.000000152308,-31.80678,-11.291218)">
<stop offset="0" style="stop-color:rgb(0%,0%,0%);stop-opacity:0.313726;"/>
<stop offset="0.222222" style="stop-color:rgb(0%,0%,0%);stop-opacity:0.27451;"/>
<stop offset="1" style="stop-color:rgb(0%,0%,0%);stop-opacity:0;"/>
</radialGradient>
<radialGradient id="radial2" gradientUnits="userSpaceOnUse" cx="450.908936" cy="189.579361" fx="450.908936" fy="189.579361" r="21.166656" gradientTransform="matrix(-0.000000261256,-0.117199,0.210958,-0.000000152308,-31.80678,95.392999)">
<stop offset="0" style="stop-color:rgb(0%,0%,0%);stop-opacity:0.313726;"/>
<stop offset="0.222222" style="stop-color:rgb(0%,0%,0%);stop-opacity:0.27451;"/>
<stop offset="1" style="stop-color:rgb(0%,0%,0%);stop-opacity:0;"/>
</radialGradient>
<radialGradient id="radial3" gradientUnits="userSpaceOnUse" cx="450.908936" cy="189.579361" fx="450.908936" fy="189.579361" r="21.166656" gradientTransform="matrix(0.000000261256,0.117199,-0.210958,0.000000152308,79.684393,-11.291219)">
<stop offset="0" style="stop-color:rgb(0%,0%,0%);stop-opacity:0.313726;"/>
<stop offset="0.222222" style="stop-color:rgb(0%,0%,0%);stop-opacity:0.27451;"/>
<stop offset="1" style="stop-color:rgb(0%,0%,0%);stop-opacity:0;"/>
</radialGradient>
<linearGradient id="linear1" gradientUnits="userSpaceOnUse" x1="254" y1="-168.666656" x2="254" y2="233.5" gradientTransform="matrix(0.093759,0,0,0.093759,0,20.158173)">
<stop offset="0" style="stop-color:rgb(39.215687%,70.980394%,96.470588%);stop-opacity:1;"/>
<stop offset="1" style="stop-color:rgb(25.882354%,64.705884%,96.078432%);stop-opacity:1;"/>
</linearGradient>
<linearGradient id="linear2" gradientUnits="userSpaceOnUse" x1="349.25" y1="11.25" x2="349.25" y2="-115.75" gradientTransform="matrix(0.093759,0,0,0.093759,0,20.158175)">
<stop offset="0" style="stop-color:rgb(87.843138%,87.843138%,87.843138%);stop-opacity:1;"/>
<stop offset="1" style="stop-color:rgb(93.333334%,93.333334%,93.333334%);stop-opacity:1;"/>
</linearGradient>
<linearGradient id="linear3" gradientUnits="userSpaceOnUse" x1="158.75" y1="180.583328" x2="158.75" y2="-115.75" gradientTransform="matrix(0.093759,0,0,0.093759,0,20.158175)">
<stop offset="0" style="stop-color:rgb(87.843138%,87.843138%,87.843138%);stop-opacity:1;"/>
<stop offset="1" style="stop-color:rgb(93.333334%,93.333334%,93.333334%);stop-opacity:1;"/>
</linearGradient>
</defs>
<g id="surface1">
<path style=" stroke:none;fill-rule:nonzero;fill:url(#linear0);" d="M 7.691406 42.050781 L 40.1875 42.050781 L 40.1875 44.035156 L 7.691406 44.035156 Z M 7.691406 42.050781 "/>
<path style=" stroke:none;fill-rule:nonzero;fill:url(#radial0);" d="M 40.1875 42.050781 L 44.15625 42.050781 L 44.15625 40.066406 L 40.1875 40.066406 Z M 40.1875 42.050781 "/>
<path style=" stroke:none;fill-rule:nonzero;fill:url(#radial1);" d="M 7.691406 42.050781 L 3.722656 42.050781 L 3.722656 44.035156 L 7.691406 44.035156 Z M 7.691406 42.050781 "/>
<path style=" stroke:none;fill-rule:nonzero;fill:url(#radial2);" d="M 7.691406 42.050781 L 3.722656 42.050781 L 3.722656 40.066406 L 7.691406 40.066406 Z M 7.691406 42.050781 "/>
<path style=" stroke:none;fill-rule:nonzero;fill:url(#radial3);" d="M 40.1875 42.050781 L 44.15625 42.050781 L 44.15625 44.035156 L 40.1875 44.035156 Z M 40.1875 42.050781 "/>
<path style=" stroke:none;fill-rule:nonzero;fill:url(#linear1);" d="M 5.457031 4.34375 L 42.171875 4.34375 C 42.992188 4.34375 43.660156 5.011719 43.660156 5.832031 L 43.660156 40.5625 C 43.660156 41.382812 42.992188 42.050781 42.171875 42.050781 L 5.457031 42.050781 C 4.636719 42.050781 3.96875 41.382812 3.96875 40.5625 L 3.96875 5.832031 C 3.96875 5.011719 4.636719 4.34375 5.457031 4.34375 Z M 5.457031 4.34375 "/>
<path style=" stroke:none;fill-rule:nonzero;fill:rgb(100%,100%,100%);fill-opacity:0.392157;" d="M 5.457031 4.34375 C 4.632812 4.34375 3.96875 5.007812 3.96875 5.832031 L 3.96875 6.390625 C 3.96875 5.566406 4.632812 4.902344 5.457031 4.902344 L 42.171875 4.902344 C 42.996094 4.902344 43.660156 5.566406 43.660156 6.390625 L 43.660156 5.832031 C 43.660156 5.007812 42.996094 4.34375 42.171875 4.34375 Z M 5.457031 4.34375 "/>
<path style=" stroke:none;fill-rule:nonzero;fill:rgb(0%,0%,0%);fill-opacity:0.235294;" d="M 5.457031 41.988281 C 4.632812 41.988281 3.96875 41.324219 3.96875 40.5 L 3.96875 39.941406 C 3.96875 40.765625 4.632812 41.429688 5.457031 41.429688 L 42.171875 41.429688 C 42.996094 41.429688 43.660156 40.765625 43.660156 39.941406 L 43.660156 40.5 C 43.660156 41.324219 42.996094 41.988281 42.171875 41.988281 Z M 5.457031 41.988281 "/>
<path style=" stroke:none;fill-rule:nonzero;fill:rgb(12.941177%,12.941177%,12.941177%);fill-opacity:1;" d="M 5.457031 4.203125 C 4.558594 4.203125 3.828125 4.933594 3.828125 5.832031 L 3.828125 40.5625 C 3.828125 41.460938 4.558594 42.191406 5.457031 42.191406 L 42.171875 42.191406 C 43.070312 42.191406 43.800781 41.460938 43.800781 40.5625 L 43.800781 5.832031 C 43.800781 4.933594 43.070312 4.203125 42.171875 4.203125 Z M 5.457031 4.484375 L 42.171875 4.484375 C 42.921875 4.484375 43.519531 5.082031 43.519531 5.832031 L 43.519531 40.5625 C 43.519531 41.3125 42.921875 41.910156 42.171875 41.910156 L 5.457031 41.910156 C 4.707031 41.910156 4.109375 41.3125 4.109375 40.5625 L 4.109375 5.832031 C 4.109375 5.082031 4.707031 4.484375 5.457031 4.484375 Z M 5.457031 4.484375 "/>
<path style=" stroke:none;fill-rule:nonzero;fill:url(#linear2);" d="M 28.777344 9.304688 L 36.714844 9.304688 C 37.808594 9.304688 38.699219 10.195312 38.699219 11.289062 L 38.699219 19.226562 C 38.699219 20.324219 37.808594 21.214844 36.714844 21.214844 L 28.777344 21.214844 C 27.679688 21.214844 26.792969 20.324219 26.792969 19.226562 L 26.792969 11.289062 C 26.792969 10.195312 27.679688 9.304688 28.777344 9.304688 Z M 28.777344 9.304688 "/>
<path style=" stroke:none;fill-rule:nonzero;fill:url(#linear3);" d="M 10.914062 9.304688 L 18.851562 9.304688 C 19.949219 9.304688 20.839844 10.195312 20.839844 11.289062 L 20.839844 35.105469 C 20.839844 36.199219 19.949219 37.089844 18.851562 37.089844 L 10.914062 37.089844 C 9.820312 37.089844 8.929688 36.199219 8.929688 35.105469 L 8.929688 11.289062 C 8.929688 10.195312 9.820312 9.304688 10.914062 9.304688 Z M 10.914062 9.304688 "/>
<path style=" stroke:none;fill-rule:nonzero;fill:rgb(100%,100%,100%);fill-opacity:0.784314;" d="M 28.777344 9.304688 C 27.675781 9.304688 26.792969 10.191406 26.792969 11.289062 L 26.792969 12.035156 C 26.792969 10.933594 27.675781 10.050781 28.777344 10.050781 L 36.714844 10.050781 C 37.8125 10.050781 38.699219 10.933594 38.699219 12.035156 L 38.699219 11.289062 C 38.699219 10.191406 37.8125 9.304688 36.714844 9.304688 Z M 28.777344 9.304688 "/>
<path style=" stroke:none;fill-rule:nonzero;fill:rgb(100%,100%,100%);fill-opacity:0.784314;" d="M 10.914062 9.304688 C 9.816406 9.304688 8.929688 10.191406 8.929688 11.289062 L 8.929688 12.035156 C 8.929688 10.933594 9.816406 10.050781 10.914062 10.050781 L 18.851562 10.050781 C 19.953125 10.050781 20.839844 10.933594 20.839844 12.035156 L 20.839844 11.289062 C 20.839844 10.191406 19.953125 9.304688 18.851562 9.304688 Z M 10.914062 9.304688 "/>
<path style=" stroke:none;fill-rule:nonzero;fill:rgb(0%,0%,0%);fill-opacity:0.235294;" d="M 28.777344 21.957031 C 27.675781 21.957031 26.792969 21.070312 26.792969 19.972656 L 26.792969 19.226562 C 26.792969 20.328125 27.675781 21.214844 28.777344 21.214844 L 36.714844 21.214844 C 37.8125 21.214844 38.699219 20.328125 38.699219 19.226562 L 38.699219 19.972656 C 38.699219 21.070312 37.8125 21.957031 36.714844 21.957031 Z M 28.777344 21.957031 "/>
<path style=" stroke:none;fill-rule:nonzero;fill:rgb(0%,0%,0%);fill-opacity:0.235294;" d="M 10.914062 37.832031 C 9.816406 37.832031 8.929688 36.949219 8.929688 35.847656 L 8.929688 35.105469 C 8.929688 36.203125 9.816406 37.089844 10.914062 37.089844 L 18.851562 37.089844 C 19.953125 37.089844 20.839844 36.203125 20.839844 35.105469 L 20.839844 35.847656 C 20.839844 36.949219 19.953125 37.832031 18.851562 37.832031 Z M 10.914062 37.832031 "/>
<path style="fill:none;stroke-width:3;stroke-linecap:round;stroke-linejoin:round;stroke:rgb(25.882354%,25.882354%,25.882354%);stroke-opacity:1;stroke-miterlimit:4;" d="M 306.929023 -115.759477 L 391.587605 -115.759477 C 403.253158 -115.759477 412.752251 -106.260384 412.752251 -94.594831 L 412.752251 -9.936249 C 412.752251 1.770966 403.253158 11.270059 391.587605 11.270059 L 306.929023 11.270059 C 295.221808 11.270059 285.764378 1.770966 285.764378 -9.936249 L 285.764378 -94.594831 C 285.764378 -106.260384 295.221808 -115.759477 306.929023 -115.759477 Z M 306.929023 -115.759477 " transform="matrix(0.093759,0,0,0.093759,0,20.158175)"/>
<path style="fill:none;stroke-width:3;stroke-linecap:round;stroke-linejoin:round;stroke:rgb(25.882354%,25.882354%,25.882354%);stroke-opacity:1;stroke-miterlimit:4;" d="M 116.40555 -115.759477 L 201.064133 -115.759477 C 212.771348 -115.759477 222.270441 -106.260384 222.270441 -94.594831 L 222.270441 159.422578 C 222.270441 171.08813 212.771348 180.587223 201.064133 180.587223 L 116.40555 180.587223 C 104.739998 180.587223 95.240905 171.08813 95.240905 159.422578 L 95.240905 -94.594831 C 95.240905 -106.260384 104.739998 -115.759477 116.40555 -115.759477 Z M 116.40555 -115.759477 " transform="matrix(0.093759,0,0,0.093759,0,20.158175)"/>
</g>
</svg>
